img/icon-bluetooth.svg

<svg width="18" height="34" viewBox="0 0 18 34" fill="none" xmlns="http://www.w3.org/2000/svg">
<path d="M17.6858 24.8216L10.6287 16.9999L17.6858 9.17916C17.9075 8.93286 18.0206 8.60468 17.9969 8.27192C17.9733 7.93882 17.8161 7.63003 17.5612 7.41826L8.98225 0.27754C8.62269 -0.0218854 8.12554 -0.0847721 7.70464 0.116904C7.28373 0.317716 7.0155 0.746169 7.0155 1.21725V12.9959L2.09065 7.53726C1.64323 7.04108 0.88199 7.00615 0.391728 7.45937C-0.0985325 7.91259 -0.133045 8.68224 0.314764 9.17883L7.0155 16.6057V17.3944L0.31483 24.8216C-0.133373 25.3174 -0.0988606 26.0875 0.391794 26.5411C0.882449 26.9947 1.64297 26.9597 2.09071 26.4628L7.01517 21.0049V32.7828C7.01517 33.2534 7.28379 33.6822 7.70431 33.8835C7.86788 33.9614 8.04346 34 8.21786 34C8.49166 34 8.76265 33.9058 8.98232 33.7233L17.5612 26.5824C17.8161 26.3703 17.9733 26.0615 17.9969 25.7288C18.0205 25.3961 17.9083 25.0678 17.6858 24.8216ZM9.42081 3.79435L15.0552 8.48375L9.42081 14.7287V3.79435ZM9.42081 30.2056V19.2716L15.0552 25.5162L9.42081 30.2056Z" fill="#C4C4C4"/>
</svg>

<svg width="18" height="34" fill="none" xmlns="http://www.w3.org/2000/svg"><path d="M17.686 24.822L10.629 17l7.057-7.82a1.227 1.227 0 00-.125-1.762L8.982.278A1.19 1.19 0 007.705.117c-.421.2-.69.63-.69 1.1v11.779L2.091 7.537a1.193 1.193 0 00-1.7-.078 1.228 1.228 0 00-.076 1.72l6.7 7.427v.788l-6.7 7.428a1.227 1.227 0 00.077 1.72c.49.453 1.251.418 1.699-.08l4.924-5.457v11.778c0 .47.269.9.69 1.1a1.194 1.194 0 001.277-.16l8.58-7.14c.254-.213.411-.521.435-.854a1.224 1.224 0 00-.311-.907zM9.42 3.794l5.634 4.69-5.634 6.245V3.794zm0 26.412V19.272l5.634 6.244-5.634 4.69z" fill="#C4C4C4"/></svg>
